**kern	**kern
*part1	*part1
*staff2	*staff1
*I"Piano	*
*clefF4	*clefG2
*k[f#c#g#d#]	*k[f#c#g#d#]
=1	=1
4EE 4E	8eL
.	8B
8r	8G#J
4EE 4E	8eL
.	8c#
8r	8AJ
=	=
4EE 4E	8eL
.	8B
8r	8G#J
4EE 4E	8eL
.	8B
8r	8G#J
=	=
4BBB 4BB	8f#L
.	8B
8r	8AJ
4BBB 4BB	8d#L
.	8B
8r	8AJ
=	=
4EE 4E	8eL
.	8B
8r	8G#J
4EE 4E	4e
8r	8r
=!|:	=!|:
4E	(8eL
.	8g#
8r	8bJ)
4E	(8eL
.	8g#
8r	8bJ)
=	=
4BB	8c#L
.	8f#
8r	8aJ
4BB	8c#L
.	8f#
8r	8aJ
=	=
4BB	8BL
.	8e
8r	8g#J
4BB	8BL
.	8d#
8r	8f#J
=	=
4E	8BL
.	8e
8r	8g#J
4E	8BL
.	8e
8r	8g#J
=	=
*-	*-
!!!system-decoration: {(s1,s2)}
